icons/lines/align-vertically.svg

<svg xmlns="http://www.w3.org/2000/svg" width="24" height="24" viewBox="0 0 24 24" fill="none" stroke="currentColor" stroke-width="2" stroke-linecap="round" stroke-linejoin="round">
  <path d="M12 13v-2" />
  <path d="M12 22v-2.4" />
  <path d="M12 2v2.69" />
  <path d="M6.6 19.25c-1.5 0-2.1-.64-2.1-2.23v-1.04c0-1.59.6-2.23 2.1-2.23h10.8c1.5 0 2.1.64 2.1 2.23v1.04c0 1.59-.6 2.23-2.1 2.23z" />
  <path d="M8.6 10.75c-1.5 0-2.1-.64-2.1-2.23V7.48c0-1.59.6-2.23 2.1-2.23h6.8c1.5 0 2.1.64 2.1 2.23v1.04c0 1.59-.6 2.23-2.1 2.23z" />
</svg>

<svg xmlns="http://www.w3.org/2000/svg" width="24" height="24" viewBox="0 0 24 24" fill="none" stroke="currentColor" stroke-width="2" stroke-linecap="round" stroke-linejoin="round" >
  <path d="M17.4 19.25H6.6C5.1 19.25 4.5 18.61 4.5 17.02V15.98C4.5 14.39 5.1 13.75 6.6 13.75H17.4C18.9 13.75 19.5 14.39 19.5 15.98V17.02C19.5 18.61 18.9 19.25 17.4 19.25Z"/>
  <path d="M15.4 10.75H8.6C7.1 10.75 6.5 10.11 6.5 8.52V7.48C6.5 5.89 7.1 5.25 8.6 5.25H15.4C16.9 5.25 17.5 5.89 17.5 7.48V8.52C17.5 10.11 16.9 10.75 15.4 10.75Z"/>
  <path d="M12 22V19.6"/>
  <path d="M12 13V11"/>
  <path d="M12 2V4.69"/>
  </svg>
